X:1
T:Symphony No. 9 in D Minor
T:Symphony No. 9 in D Minor
T:Second Movement - Scherzo
T:Ludwig van Beethoven
T:Arranged for piano by Franz Liszt
C:Ludwig van Beethoven
Z:Arranged for piano by Franz Lizst
%%score { ( 1 4 ) | ( 2 3 5 ) }
L:1/8
Q:1/4=348
M:3/4
K:F
V:1 treble nm="Piano" snm="Pno."
V:4 treble 
V:2 bass 
V:3 bass 
V:5 bass 
V:1
S!ff!"^Molto vivace" .[dd']2 z D .D2 | z6 | .[Aa]2 z A, .A,2 | z6 | z6 | .[Dd]2 z x x2 | z6 | z6 |: %8
!pp! .a2 z A .A2 | .d2 .e2 .f2 | e2 .f2 .g2 | .f2 .e2 .d2 | .f2 .e2 .d2 | .c2 .=B2 .A2 | %14
 .^G2 .A2 .=B2 | .A2 .^G2 .A2 | .[G_B]2 .[FA]2 .[EG]2 | .F2 .G2 .[DA]2 | .A2 .A2 .A2 | %19
 .A2 .A2 .a2 | .d'2 z d .d2 | .[ea]2 .[d=b]2 .[cc']2 | .[=B=b]2 .[ec']2 .[ed']2 | %23
 .[ec']2 .[d=b]2 .[ca]2 | .[^cg_b]2 .[dfa]2 .[Geg]2 |!pp! .[Fdf]2 .[G^ce]2 .[Ad]2 | %26
 .[GA^c]2 .[FAd]2 .[EAe]2 | .[DAd]2 .[GA^c]2 .[FAd]2 | .[Aa]2 .[Aga]2 .[Afa]2 | %29
 .[Aea]2 .[e^ge']2 .[eae']2 | .[e=be']2 .[ec'e']2 .[ed'e']2 | .[ec'e']2 .[e=be']2 .[Aa]2 | %32
 .[^ca]2 .[da]2 .[ea]2 | .[da]2 .[Aa]2 .[Aa]2 | .[Ab]2 .[Aa]2 .[Ag]2 | .[Af]2 .[Ae]2 .[Ad]2 | %36
 .[^Gdf]2 .[Ace]2 .[G=Bd]2 | .[CAc]2 .[D^G=B]2 .[CEA]2 | .[=B,F^G]2 .[CEA]2 .[D=B]2 | %39
 .[CEA]2 .[=B,D^G]2 .[CA]2 | .[E_B^c]2 .[Ad]2 .[Ge]2 | .[Ff]2 .[Geg]2 .[Ada]2 | %42
 .[B^cb]2 .[Ada]2 .[Geg]2 | .[Fdf]2 .[E^ce]2 .[Dd]2 |"_cresc." .[E^c]2 .[Fd]2 .[Ge]2 | %45
 .[Fd]2 .[E^c]2 .[Fd]2 | .[E^c]2 .[Fd]2 .[Ge]2 | .[Fd]2 .[E^c]2 .[Fd]2 | .[E^c]2 .[Fd]2 .[Ge]2 | %49
 .[Fd]2 .[E^c]2 .[Fd]2 | .[Ece]2 .[Fdf]2 .[Geg]2 | .[Fdf]2 .[E^ce]2 .[Fdf]2 | %52
 .[Ece]2 .[Fdf]2 .[Geg]2 | .[Fdf]2 .[E^ce]2 .[Fdf]2 | .[Ece]2 .[Fdf]2 .[Geg]2 | .[Aa]2 z A .A2 | %56
!ff! [Adfa]2 z A A2 | [FAd]2 [Ee]2 [Ff]2 | [EA^ce]2 [Ff]2 [Gg]2 | [FAf]2 [Ee]2 [Dd]2 | %60
 !>![Bdb]2 [Aa]2 [Gg]2 | !>![FAf]2 [Ee]2 [Dd]2 | !>![^CA^c]2 [Dd]2 [Ee]2 | %63
 !>![DAd]2 [^C^c]2 [Dd]2 | !>![Bdb]2 [Aa]2 [Gg]2 | !>![FAf]2 [Ee]2 [Dd]2 | %66
 !>![^CA^c]2 [Dd]2 [Ee]2 | !>![DAd]2 [^C^c]2 [D=Bd]2 | !>![Aa]2 [Gg]2 [Ff]2 | %69
 !>![EGe]2 [Dd]2 [Cc]2 | !>![=B,FG=B]2 [Cc]2 [Dd]2 | !>![CEGc]2!<(! [A=Bfa]2 [ABfa]2!<)! | %72
!fff! !>![A=Bfa]2 [Gg]2 [Ff]2 | !>![EGe]2 [Dd]2 [Cc]2 | !>![Gcg]2 [Ff]2 [Ee]2 | %75
 !>![ege']2!>(! [dd']2 [cc']2!>)! | [=Bg=b]2!p! z2 z2 |!<(! g6 | [ga]6 | [fad']6 | [f_ad']6 | %81
 [egc']6!<)! | [_egc']6 | [dg=b]6 |!p! G6 | G6 | [GA]6 | [FAd]6 | [F_Ad]6 | [EGc]6 | [_EGc]6 | %91
 [DG=B]6 |!ff! [=Ec]4 [DFd][EGe] | .[FAf]2 z2 .[EGe]2 | [DFd]2 z2 .[CEc]2 | .[DFd]2 z2 .[=B,D=B]2 | %96
 [Ece]4 [Fdf][Geg] | .[Afa]2 z2 .[Geg]2 | .[Fdf]2 z2 .[Ece]2 | .[Fdf]2 z2 .[D=Bd]2 | %100
 .[Ec]2!8va(! [cec']2 [dfd'][ege'] | .[faf']2 .[faf']2 .[ege']2 | .[dfd']2 .[dfd']2 .[cec']2 | %103
 .[dfd']2 .[dfd']2 .[=Bd=b]2 | .[ec'e']2 [ec'e']2 [fd'f'][ge'g'] | .[af'a']2 .[af'a']2 .[ge'g']2 | %106
 .[fd'f']2 .[fd'f']2 .[ec'e']2 | .[fd'f']2 .[fd'f']2 .[d=bd']2 | .[ee']2!8va)! z [Ee] .[Ee]2 | %109
!8va(! .[ee']2 .[ff']2 .[gg']2 | .[aa']2!8va)! z2 z2 | .[Aa]2 .[=B=b]2 .[cc']2 | %112
 .[dd']2 z [Dd] .[Dd]2 | .[dd']2 .[ee']2 .[ff']2 | .[gg']2 z2 z2 | .G2 .E2 .D2 |!p! c6- | %117
 c2 d2 e2 |!<(! f6 | e6!<)! |!mf! [Ece]6- |!>(! e2 d2 c2!>)! |!p! [fc'-f']6 |"_cresc." [ec'e']6 | %124
 [ec'e']6- | [ec'e']2 [fd'f']2 [ge'g']2 |!f! .[gg']2 .[ee']2 .[aa']2 | .[ff']2 .[dd']2 .[gg']2 | %128
 .[Ee]2 .[Ec]2 .[Fcf]2 | .[DAd]2 .[G=B]2 .[Ece]2 | .[gg']2 .[ee']2 .[aa']2 | %131
 .[ff']2 .[dd']2 .[gg']2 | .[Geg]2 .[Gcg]2 .[Gfg]2 | .[Gdg]2 .[G=Bg]2 .[Geg]2 | %134
 .[ec'e']2 .[egc']2 .[ge'g']2 | .[fd'f']2 .[f=bd']2 .[fbg']2 | .[ec'e']2 .[egc']2 .[ge'g']2 | %137
 .[fd'f']2 .[f=bd']2 .[fbg']2 |!pp! [Gg]2 [Aa]2 [=B=b]2 | [cc']2 [dd']2 [ee']2 | %140
!8va(! [ff']2 [ee']2 [ff']2 | [gg']2 [aa']2 [=b=b']2 | [c'c'']2!8va)! z2 z2 | %143
 .[cec']2 z [EAc] .[EAc]2 | .[FAc]2 z2 z2 | .[dfd']2 z [FAd] .[FAd]2 | .[FAd]2 z2 z2 | z6 | z6 | %149
 z6 :|!pp! .[FAd]2 z2 z2 | .[dfd']2 z [FBd] .[FBd]2 | .[GBd]2 z2 z2 | .[_eg_e']2 z [GBe] .[GBe]2 | %154
 .[GB_e]2 z2 z2 | z6 | z6 | z6 |: .[GB_e]2 z2"_cresc." z2 | .[_eg_e']2 z [Gce] .[Gce]2 | %160
 .[_Ac_e]2 z2 z2 | .[f_af']2 z [_Acf] .[Acf]2 | .[_A_df]2 z2 z2 | .[f_d'f']2 z [B_df] .[Bdf]2 | %164
 .[B_d_g]2 z2 z2 | .[_gb_g']2 z [B_eg] .[Beg]2 | .[_c_e_g]2 z2 z2 | %167
 .[_a_c'_a']2 z [_c_ea] .[cea]2 | .[=B=e^g]2 z2 z2 | .[^ge'^g']2 z [^ceg] .[ceg]2 | %170
!f! .[^cea]2 z2 z2 | .[aa']2 z [Aa] .[Aa]2 |!ff! .[^A^a]2 z2 z2 | .[^a^a']2 z [^Aa] .[Aa]2 | %174
!ff! .[=B=b]2 z2 z2 |!ff!!8va(! .[=b=b']2!8va)! z [=B=b][Q:1/4=60] !fermata![Bb]2 || %176
[K:G]!p![Q:1/4=348]"^Ritmo di tre battute" z6 | z6 | z6 | .[Bb]2 z B .B2 | %180
 .[Ee]2 .[F^df]2 .[Geg]2 | .[F^df]2 .[Geg]2 .[Afa]2 | .[Geg]2 .[Bgb]2 .[Bgb]2 | %183
 .[Bgb]2 .[Afa]2 .[Geg]2 | .[Afa]2 .[Geg]2 .[F^df]2 | .e'2 z e .e2 | .[Aea]2 .[B^gb]2 .[cac']2 | %187
 .[B^gb]2 .[cac']2 .[dbd']2 | .[cac']2 .[ec'e']2 .[ec'e']2 | .[ec'e']2 .[dbd']2 .[cac']2 | %190
 .[dbd']2 .[cac']2 .[B^gb]2 | .[ee']2 z e .e2 | .[Aea]2 .[B^gb]2 .[cac']2 | %193
 .[B^gb]2 .[cac']2 .[dbd']2 ||[K:F] z6 |!p! .[Afa]2 .[Bgb]2 .[cac']2 | .[Bgb]2 .[cac']2 .[dbd']2 | %197
 z6 |!p! .[cac']2 .[ege']2 .[faf']2 | .[ege']2 .[faf']2 .[gbg']2 | z6 | %201
!p! .[faf']2 .[gbf']2 .[ac'f']2 | .[gbf']2 .[ac'f']2 .[bd'f']2 | z6 | %204
!p! .[aa']2 .[c'g']2 .[c'f']2 | .[c'g']2 .[c'f']2 .[c'e']2 |"_dim." .[faf']2 .[gbg']2 .[ac'a']2 | %207
 .[ac'a']2 .[gbg']2 .[faf']2 | .[faf']2 .[gbg']2 .[faf']2 | .[Ge]2 .[Af]2 .[Bg]2 | %210
 .[Bg]2 .[Af]2 .[Ge]2 | .[Ge]2 .[Af]2 .[Ge]2 | .[dfd']2 .[ege']2 .[faf']2 | %213
!8va(! .[faf']2 .[ege']2 .[dfd']2 | .[dfd']2 .[ege']2 .[dfd']2!8va)! | .[E^c]2 .[Fd]2 .[Ge]2 | %216
 .[Ge]2 .[Fd]2 .[E^c]2 | .[E^c]2 .[Fd]2 .[Ec]2 |!pp! .[dfd']2 .[ege']2 .[faf']2 | %219
 .[faf']2 .[ege']2 .[dfd']2 | .[dfd']2 .[ege']2 .[dfd']2 | .[E^c]2 .[Fd]2 .[Ge]2 | %222
 .[Ge]2 [Fd]2 .[E^c]2 | .[E^c]2 .[Fd]2 .[Ec]2 | .[Aa]2 z A .A2 | .[FAd]2 .[E^ce]2 .[Fdf]2 | %226
 .[E^ce]2 .[Fdf]2 .[Geg]2 | .[Fdf]2 .[Afa]2 .[Afa]2 | .[Afa]2 .[ega]2 .[dfa]2 | %229
 .[ega]2 .[dfa]2 .[^cea]2 | .[aa']2 z a .a2 | .[dd']2 .[e^c'e']2 .[fd'f']2 | %232
 .[e^c'e']2 .[fd'f']2 .[ge'g']2 | .[fd'f']2 .[fa]2 .[fa]2 | .A2 z A, .A,2 | .A2 z A, .A,2 | %236
 .a2 z A .A2 | .g2 z G .G2 | .G2 z G, .G,2 | .[=B,D]2 .[C_E]2 .[DF]2 | .g2 z G .G2 | %241
 .[F_Ad]2 .[G_e]2 .[Af]2 | .[G_e]2 .[Fd]2 .[Ge]2 | .[F_Ad]2 .[G_e]2 .[Af]2 | %244
 .[G_e]2 .[Fd]2 .[Ge]2 | .[Bb]2 z B B2 | .[GB_e]2 .[_Adf]2 .[Geg]2 | [_Ad_a]6- | [Ada]6- | %249
 [Ada]6- | [Ada]6 | .[Bg]2 .[_Af]2 .[G_e]2 | .[Bgb]2 .[f_a]2 .[_eg]2 | .[Bg]2 .[_Af]2 .[G_e]2 | %254
 .[Bgb]2 [f_a]2 .[_eg]2 | [_Ad_a]6- | [Ada]6- | [Ada]6- | [Ada]6 | [=Ad=a]6- | [Ada]6- | [Ada]6- | %262
 [Ada]6 |!f! .[Ada]2 z D .D2 | .[FAd]2 z D .D2 | .[Ada]2 z D .D2 | .[FAd]2 z D .D2 | %267
!ff! .[ad'f'a']2 z [Ada] .[Ada]2 | .[ad'f'a']2 z [Ada] .[Ada]2 | .[ad'f'a']2 z [Ada] .[Ada]2 | %270
 .[ad'f'a']2 z [Ada] .[Ada]2 | .[ad'f'a']2 z [Aa] .[Aa]2 |!8va(! .[dd']2 .[ee']2 .[ff']2 | %273
 .[ee']2 .[ff']2 .[gg']2 | .[ff']2 .[ee']2 .[dd']2 | .[bb']2 .[aa']2 .[gg']2 | %276
 .[ff']2 .[ee']2 .[dd']2 | .[^c^c']2 .[dd']2 .[ee']2 | .[dd']2 .[^c^c']2 .[dd']2 | %279
 .[bb']2 .[aa']2 .[gg']2 | .[ff']2 .[ee']2 .[dd']2 | .[^c^c']2 .[dd']2 .[ee']2 | %282
 .[dd']2 .[^c^c']2 .[dd']2!8va)! | .[=c=c']2 .[dd']2 .[_e_e']2 | .[Gdg]2 .[Aa]2 .[Bb]2 | %285
 .[Ada]2 .[Bb]2 .[cc']2 | .[Bdb]2 .[Aa]2 .[Gg]2 | .[_eg_e']2 .[dd']2 .[cc']2 | %288
 .[Bb]2 .[Aa]2 .[Gg]2 | .[Ff]2 .[_E_e]2 .[Dd]2 | .[Cc]2 .[B,B]2 .[A,A]2 | .[Gg]2 .[Ff]2 .[_E_e]2 | %292
 .[Dd]2 .[_E_e]2 .[Ff]2 | .[Gg]2 .[Aa]2 .[Bb]2 | .[cc']2 .[dd']2 .[_e_e']2 | [ff']6- |!p! [ff'-]6 | %297
 [fgf']6 | [_eg_e']6 | [_ea_e']6 | [dbd']6 | [_db_d']6 | [cac']6 | [Bb]6- | [Bb]6 | [Aa-]6 | a6 | %307
!<(! [a=b]6 | [g=be']6 | [gbe']6!<)! |!mf! [^fad']6 | [=fad']6 | [ea^c']6 |!p! z6 | %314
"_cresc." .A2 z4 | .[AB]2 x4 | .[GBe]2 z E .E2 | .[GAe]2 z E .E2 |!mf! .[^FAd]2!>(! z D .D2 | %319
 .[=F^Gd]2 z D .D2 | .[E=G^c]2 z ^C .C2!>)! |!p! [Aa]6 |"_cresc." [^f-=b^f'-]6 | [f^d'f']6 | %324
 [ge'g']6 | [e^c'e']6 | [^fd'^f']6 | [ad'a']6 | [g^c'a']4 [^C^c]2 |!ff! [Dd]4 [Ee][^F^f] | %330
 [Gg]2 z2 [^F^f]2 | .[Ee]2 z2 .[Dd]2 | [Ee]2 z2 [^C^c]2 | [^Fd^f]4 [Geg][Afa] | %334
 .[=Bg=b]2 z2 .[A^fa]2 | .[Geg]2 z2 .[^Fd^f]2 | .[Geg]2 z2 .[E^ce]2 | %337
!8va(! .[dd']2 [d=fd']2 [ege'][faf'] | .[gbg']2 .[gbg']2 .[faf']2 | .[ege']2 .[ege']2 .[dfd']2 | %340
 .[ege']2 .[ege']2 .[^ce^c']2 | .[fd'f']2 .[fd'f']2 .[ge'g'].[af'a'] | %342
 .[bg'b']2 .[bg'b']2 .[af'a']2 | .[ge'g']2 .[ge'g']2 .[fd'f']2 | .[ge'g']2 .[ge'g']2 .[e^c'e']2 | %345
 .[fd'f']2!8va)! z [Ff] .[Ff]2 |!8va(! .[ff']2 .[gg']2 .[aa']2 | .[bb']2!8va)! z2 z2 | %348
 .[Bb]2 .[cc']2 .[dd']2 | .[ee']2 z [Ee] .[Ee]2 | .[ee']2 .[ff']2 .[gg']2 | .[aa']2 z2 z2 | %352
 .A2 .F2 .E2 |!p! d6- | d2 e2 ^f2 |!<(! g6 | g6 | g4!<)!!>(! x2 | g2 f2 e2!>)! | %359
!p!!8va(! [g_e'g']6 |"_cresc." [g_e'g']6 | [g=e'g']6- | .[ge'g']2 .[fd'f']2 .[ge'g']2 | %363
 .[aa']2 .[ff']2 .[bb']2 | .[gg']2 .[ee']2 .[aa']2!8va)! | .[FAf]2 .[Gd]2 .[Bdg]2 | %366
 .[E=Bde]2 .[EA^c]2 .[Fdf]2 | .[Afa]2!8va(! .[ff']2 .[bb']2 | .[gg']2 .[ee']2 .[aa']2!8va)! | %369
 .[Afa]2 .[Ada]2 .[Aga]2 | .[Aea]2 .[A^ca]2 .[Afa]2 |!ff! .[fd'f']2 .[fad']2 .[af'a']2 | %372
 .[ge'g']2 .[g^c'e']2 .[gc'a']2 | .[fd'f']2 .[fad']2 .[af'a']2 | .[ge'g']2 .[g^c'e']2 .[gc'a']2 | %375
!pp! A2 c2 e2 | [Gg]2 [^c^c']2 [ee']2 | [gg']6- | [gg']2 [ee']2 [^c^c']2 | .[dd']2 z2 z2 | %380
 .[dfd']2 z [FAd] .[FAd]2 | .[FAd]2 z2 z2 | .[dfd']2 z [FAd] .[FAd]2 | .[FAd]2 z2 z2 | z6 | z6 | %386
 z6 ||1 .[FAd]2 z2 z2 | .[dfd']2 z [FBd] .[FBd]2 | .[FBd]2 z2 z2 | .[fbd']2 z [FBd] .[FBd]2 | %391
 .[FBdf]2 z2 z2 | .[dbd']2 z [Bdb] .[Bdb]2 | .[Bfb]2 z2 z2 | [Bgb]2 z [_EGB] .[EGB]2 | %395
 .[_EGB]2 z2 z2 | z6 | z6 | z6 :|2 .[FAd]2"_cresc." z2 z2 | .[dfd']2 z [FAd] .[FAd]2 || %401
 .[FAd]2 z2 z2 | .[dfd']2 z [FAd] .[FAd]2 | .[FBd]2 z2 z2 | .[dbd']2 z [GBd] .[GBd]2 | %405
!f! .[DGd]2 z D .D2 |!ff! .[ea^c'e']2 z e[Q:1/4=60] !fermata![eac'e']2!dacoda! | %407
[Q:1/4=348]!pp! .a2 z A .A2 | .d2 .e2 .f2 | .[A^fa]2 .[Bgb]2 .[cac']2 | .[dbd']2 .[cac']2 .[Bgb]2 | %411
 .a2 z A .A2 | .d2 .e2 .f2 | .[A^fa]2 .[Bgb]2 .[cac']2 | .[dbd']2 .[cac']2 .[Bgb]2 | %415
"^stringendo il tempo" .[Aa]2 z [A,A]"_cresc." .[A,A]2 |[Q:1/4=360] .[Dd]2 .[Ee]2 .[Ff]2 | %417
[Q:1/4=372] .[Aa]2 z [A,A] .[A,A]2 |[Q:1/4=384] .[Dd]2 .[Ee]2 .[Ff]2 | %419
[Q:1/4=396] .[Aa]2 z [A,A] .[A,A]2 |[Q:1/4=408] .[Dd]2 .[Ee]2 .[Ff]2 | %421
[Q:1/4=420] .[Aa]2 z [A,A] .[A,A]2 |[Q:1/4=432] .[Dd]2 .[Ee]2 .[Ff]2 || %423
[M:4/4]!ff![Q:1/4=444]"^Presto" [Aa]2 A2 !>![dd']2 d2 | !>![Aa]2 A2 !>![aa']2 [Aa]2 | d8- | %426
!p! d4 e4 |:[K:D] [df]6 [eg][fa] | .[dg]2 .[eg]2 .[df]2 .f2 | e4 d4 |!p! d4 e4 | [df]6 [eg][fa] | %432
 .[dg]2 .[eg]2 .f2 .[df]2 |1 .e2 z2 d4- | d4 e4 :|2 .e2 z2 |: x4 || x8 | x4 A4- | A4 ^G4 | %440
 A4 [B,DB]2 [CEc]2 | [DFd]2 [CEc]2 [DFd]2 [EGe]2 | [FAf]2 [Aa]2 [Bgb]2 [Gg]2 | %443
 .[Fdf]2 z2 .[Ece]2 z2 | [Dd]2 F2 D2 C2 | D2 E2 F2 G2 | E2"_cresc." A2 ^G2 A2 | %447
 [DB]2 [CE]2 [DF]2 [E^G]2 | A2 [Aa]2 [Bb]2 [cc']2 | [dd']2 [cc']2 [dd']2 [ec'e']2 | %450
 [fd'f']2!f! [aa']2!>(! [gbg']2 [Bb]2!>)! |!p! .[dad']2 z2 .[cac']2 z2 | .[dad']2 z2!p! .d'2 .c'2 | %453
 .d'2 .b2 .a2 .g2 | .f2 .e2 .d2 .=c2 | .B2 .^c2 .d2 .f2 | .a2 .g2 .d2 .c2 | .d2 .B2 .A2 .G2 | %458
 z2 .E2 .D2 .=C2 | .B,2 .^C2 .D2 .F2 | [DA]2 z2 .d2 .c2 | .d2 .B2 .A2 .G2 | F6 .G.A | %463
 .G2 .G2 .F2 .F2 | .A2 .G2 .[dd']2 .[cc']2 | .[dd']2 .[Bb]2 .[Aa]2 .[Gg]2 | %466
 .[Ff]2 .[Ee]2 .[Dd]2 .[=C=c]2 | .[B,B]2 .[^C^c]2 .[Dd]2 .[Ff]2 | [Aa]2 z2 .a2 .^g2 | %469
 .a2 .f2 .e2 .d2 | .c2 .B2 .A2 .g2 | .f2 .^g2 .a2 .e2 | .d'2 .^g2 a2 g2 | a2 f2 e2 d2 | %474
 c2 A2 a2 ^g2 | a2 f2 e2 d2 | c2 A2 b2 ^a2 | b2 g2 e2 d2 | c2 A2 b2 ^a2 | b2 g2 e2 d2 | %480
 c2 A2"_cresc." e2 ^d2 | e2 c2 g2 f2 | g2 e2 e2 ^d2 | e2 c2 g2 f2 | g2 e2 g2 f2 | %485
 g2!f! e2!p! g2 f2 | g2 d2 =c2 _B2 | A2 =f2 g2 ^f2 | g2 [_Be-]2 [A-e]2 [Ada]2 | [dad']8-!p! | %490
"_cresc." [dad']4 [eae']4 | [faf']6 [gg'][aa'] | .[gg']2 .[gg']2 .[faf']2 .[ff']2 | %493
 [eae']4 [dad']4- | [dad']4 [eae']4 | [faf']6 [gg'][aa'] | .[gg']2 .[gg']2 .[faf']2 .[ff']2 | %497
 [eae']4!f! [Ad]4 | [Ad]4 [EAce]4 | [FAdf]6 [Gg][Aa] | .[Gdg]2 .[Geg]2 .[Fdf]2 .[FAf]2 | %501
 [Ee]4 [Ad]4 | [Ad]4 [EAce]4 | [FAdf]6 [Gg][Aa] | .[Bgb]2 .[Bgb]2 .[cfc']2 .[cfc']2 |1 %505
 [dfd']2 z2 :|2!f! [dfd']2 z2!p! .[dd']2 .[cc']2 || .[dd']2 .[Bb]2 .[Aa]2 .[Gg]2 | %508
 .[Ff]2 .[ee']2 .[dd']2 .[=c=c']2 | .[Bb]2 .[^c^c']2 .[dd']2 .[ff']2 | %510
 .[aa']2 .[cc']2"_cresc." .[dd']2 .[cc']2 | .[dd']2 .[Bb]2 .[Aa]2 .[Gg]2 | %512
 .[Ff]2 .d2 .[ff']2 .[ee']2 | .[ff']2 .[dd']2 .[cc']2 .[Bb]2 | .[Aa]2 .[Ff]2 .[aa']2 .[^g^g']2 | %515
 .[aa']2 .[ff']2 .[ee']2 .[cc']2 | .[Aa]2 .[^g^g']2 .[aa']2 .[gg']2 | %517
 .[aa']2 .[ff']2 .[ee']2 .[cc']2 |!mf! .[Adfa]2 .[dd']2 .[ee']2 .[dd']2 | %519
 .[Acea]2 .[ee']2 .[ff']2 .[ee']2 |"_dim." .[Adfa]2 .[dd']2 .[ee']2 .[dd']2 | %521
 .[Acea]2 .[ee']2 .[ff']2 .[ee']2 |!p! .[dd']2 z2!mp!"_cresc." d4- | d4 [Ede]4 | [Fdf]4 [df]4- | %525
 [df]4 [Geg]4 | [Afa]4!8va(! [dfad']4- | [dfad']4 [egac'e']4 | [fad'f']4 [fad'f']4- | %529
 [fad'f']4 [ge'g']4 |!ff! [af'a']4 [ad'f'a']4 | [ac'e'a']4 [ac'e'a']4 | %532
"_dim." [ad'f'a']4 [ad'f'a']4 | [ac'e'a']4 [ac'e'a']4 | [ad'f'a']4 [ad'f'a']4 | %535
 [ac'e'a']4 [ac'e'a']4 | [ad'f'a']4 [ad'f'a']4 | [ac'e'a']4 [ac'e'a']4 | %538
 [ad'f'a']4!8va)! [dgbd']4- |!p! [dgbd']8 | [fad']4 [gbd']4- | [gbd']8 | [fad']4 [dgbd']4- | %543
 [dgbd']8 | d2 B2 A2 G2 | %545
!pp![Q:1/4=348]"^poco rit." [dd']2 [_B_b]2 [Aa]2[Q:1/4=60] !fermata![Gg]2!D.C.! || %546
[K:F][M:3/4]O"^Coda"!pp![Q:1/4=348] .a2 z A .A2 | .d2 .e2 .f2 | .[A^fa]2 .[Bgb]2 .[cac']2 | %549
 .[dbd']2 .[cac']2 .[Bgb]2 | .a2 z A .A2 | .d2 .e2 .f2 | .[A^fa]2 .[Bgb]2 .[cac']2 | %553
 .[dbd']2 .[cac']2 .[Bgb]2 |"^stringendo il tempo" .[Aa]2 z [A,A]"_cresc." .[A,A]2 | %555
[Q:1/4=360] .[Dd]2 .[Ee]2 .[Ff]2 |[Q:1/4=372] .[Aa]2 z [A,A] .[A,A]2 | %557
[Q:1/4=384] .[Dd]2 .[Ee]2 .[Ff]2 |[Q:1/4=396] .[Aa]2 z [A,A] .[A,A]2 | %559
[Q:1/4=408] .[Dd]2 .[Ee]2 .[Ff]2 |[Q:1/4=420] .[Aa]2 z [A,A] .[A,A]2 | %561
[Q:1/4=434] .[Dd]2 .[Ee]2 .[Ff]2 ||[M:2/2][Q:1/4=444]"^Presto"!ff! !>![Aa]2 A2 !>![Dd]2 D2 | %563
 !>![A,A]2 A,2 !>![Aa]2 [Aa]2 ||[K:D] [dd']8- | [dd']4 [ed'e']4 | [fd'f']6 [e'g'][f'a'] | %567
 .[gd'g']2 .[gd'g']2 .[fd'f']2 .[ff']2 | [ee']4 [dd']4- | [dd']4 [ed'e']4 | [fd'f']6 [e'g'][f'a'] | %571
 z8 |!ff! !>![aa']2 [Aa]2 !>![dd']2 [Dd]2 | !>![Aa]2 [A,A]2 !>![aa']2 [Aa]2 | %574
 [Dd]2[Q:1/4=60] z2 !fermata!z4 |] %575
V:2
!ped! .[D,D]2 z [D,,D,] .[D,,D,]2!ped-up! | z6 |!ped! .[A,,A,]2 z [A,,,A,,] .[A,,,A,,]2!ped-up! | %3
 z6 |!ped! .F,,2 z !>!F,,, .F,,,2!ped-up! |!ped! .[D,,D,]2 z D, .D,2!ped-up! | z6 | z6 |: z6 | z6 | %10
 z6 | z6 |[K:treble] .d2 z .D .D2 | .A2 .=B2 .c2 | .=B2 .c2 .d2 | .c2 .=B2 z2 | .A2 z A, .A,2 | %17
 .D2 .E2 .F2 | .[^CE]2 .[DF]2 .[EG]2 | .[DF]2 .[^CE]2 .D2 | .[FA]2 .[EG]2 .[DF]2 | %21
 .[=CE]2 .[=B,E]2 .[A,E]2 | .[^G,E]2 .[A,A]2 .[=B,^G]2 | .[A,A]2 .[^G,E]2 .[A,E]2 | %24
[K:bass]!p! .A,2 z A,, .A,,2 | x2 .A,2 .A,2 | .A,2 .A,2 .A,2 | .A,2 .A,2 .A,2 | %28
 .[F,A,]2 .[E,A,]2 .[D,A,]2 | .[C,E,]2 .[=B,,D,]2 .[A,,C,]2 | .[^G,,D,]2 .[A,,C,]2 .=B,,2 | %31
 .A,,2 .[^G,D]2 .[A,C]2 | .[=G,_B,]2 .[F,A,]2 .[E,G,]2 | .[F,A,]2 .[E,G,]2 .[D,F,]2 | %34
 .[^C,E,]2 .[D,F,]2 .[E,G,]2 | .[D,A,]2 .[^C,A,]2 .[D,A,]2 | .=B,,2 .C,2 .F,2 | .E,2 .F,2 .E,2 | %38
 .D,2 .E,2 .G,2 | .E,2 .F,2 .[E,A,]2 | .G,2 .F,2 .E,2 | .[D,A,]2 .[E,G,]2 .F,2 | %42
 .[E,G,]2 .[F,A,]2 .[G,B,]2 | .A,2 .[G,B,]2 .[F,A,]2 | .[G,B,]2 .[F,A,]2 .[E,G,]2 | %45
 .[F,A,]2 .[G,B,]2 .[F,A,]2 | .[G,B,]2 .[F,A,]2 .[E,G,]2 | .[F,A,]2 .[G,B,]2 .[F,A,]2 | %48
 .[G,B,]2 .[F,A,]2 .[E,G,]2 | .[F,A,]2 .[G,B,]2 .[F,A,]2 | .[E,G,]2 .[D,F,]2 .[^C,E,]2 | %51
 .[D,F,]2 .[E,G,]2 .[D,F,]2 | .[E,G,]2 .[D,F,]2 .[^C,E,]2 | .[D,F,]2 .[E,G,]2 .[D,F,]2 | %54
 .[E,G,]2 .[D,F,]2 .[^C,E,]2 | .[G,,G,]2 .[F,,F,]2 .[E,,E,]2 |!ped! .[D,,D,]2 z A, A,2!ped-up! | %57
!ped! .[D,F,A,D]2 z2!ped-up! z2 |!ped! .[A,,^C,E,A,]2 z2!ped-up! z2 | %59
!ped! [D,,F,,A,,D,]2 z2!ped-up! z2 |!ped! .[G,,D,G,B,]2 z2!ped-up! z2 | %61
!ped! .[A,,D,F,A,]2 z2!ped-up! z2 |!ped! .[A,,E,G,A,]2 z2!ped-up! z2 | %63
!ped!{/D,,} .[D,F,A,]2 z2!ped-up! z2 |!ped! .[G,,D,G,B,]2 z2!ped-up! z2 | %65
!ped! .[A,,D,F,A,]2 z2!ped-up! z2 |!ped! .[A,,E,G,A,]2 z2!ped-up! z2 | %67
!ped!{/D,,} .[D,F,A,]2 z2!ped-up! [G,,D,F,=B,]2 |!ped! !>![G,,D,F,=B,]2 z2!ped-up! z2 | %69
!ped! !>![C,E,G,C]2 z2!ped-up! z2 |!ped! !>![G,,D,F,G,]2 z2!ped-up! z2 | %71
{/C,,} !>![C,E,G,]2!ped! [G,,D,F,=B,]2 [G,,D,F,B,]2!ped-up! | !>![G,,D,F,=B,]2 z2 z2 | %73
!ped! !>![C,E,G,C]2 z2!ped-up! z2 |!ped! !>![C,G,CE]2 z2!ped-up! z2 | %75
!ped! !>![C,E,G,C]2 z2!ped-up! z2 | [G,=B,DG]2 z[K:treble] G G2 | x6 | x6 | z2 z [FAd] .[FAd]2 | %80
!ped! z2 z [F_A] .[FA]2!ped-up! |!ped! z2 z [EG] .[EG]2!ped-up! |!ped! z2 z [_EG] .[EG]2!ped-up! | %83
!ped! z2 z [DG] .[DG]2!ped-up! | z2 z[K:bass] G, .G,2 | z2 z G, .G,2 | z2 z [G,A,] .[G,A,]2 | %87
 z2 z [F,A,D] .[F,A,D]2 |!ped! z2 z [F,_A,D]!ped-up! .[F,A,D]2 | %89
!ped! z2 z [E,G,C]!ped-up! .[E,G,C]2 |!ped! z2 z [_E,G,C]!ped-up! .[E,G,C]2 | %91
!ped! z2 z [D,G,=B,]!ped-up! .[D,G,B,]2 |!ped! [C,C]2 z [C,,C,]!ped-up! .[C,,C,]2 | %93
!ped! [C,C]2 z [C,,C,]!ped-up! .[C,,C,]2 |!ped! [C,C]2 z [C,,C,]!ped-up! .[C,,C,]2 | %95
!ped! [C,C]2 z [C,,C,]!ped-up! .[C,,C,]2 |!ped! [C,C]2 z [C,,C,]!ped-up! .[C,,C,]2 | %97
!ped! [C,C]2 z [C,,C,]!ped-up! .[C,,C,]2 |!ped! [C,C]2 z [C,,C,]!ped-up! .[C,,C,]2 | %99
!ped! [C,C]2 z [C,,C,]!ped-up! .[C,,C,]2 |!ped! [C,C]2 z [C,,C,]!ped-up! .[C,,C,]2 | %101
!ped! [C,C]2 z [C,,C,]!ped-up! .[C,,C,]2 |!ped! [C,C]2 z [C,,C,]!ped-up! .[C,,C,]2 | %103
!ped! [C,C]2 z [C,,C,]!ped-up! .[C,,C,]2 |!ped! [C,C]2 z [C,,C,]!ped-up! .[C,,C,]2 | %105
!ped! [C,C]2 z [C,,C,]!ped-up! .[C,,C,]2 |!ped! [C,C]2 z [C,,C,]!ped-up! .[C,,C,]2 | %107
!ped! [C,C]2 z [C,,C,]!ped-up! .[C,,C,]2 |!ped! [C,C]2 z [C,,C,]!ped-up! .[C,,C,]2 | %109
 .[C,C]2 .[D,D]2 .[E,E]2 |!ped! .[F,F]2 z [F,,A,,] [F,,A,,]2!ped-up! | .[F,A,]2 .[D,F,]2 .[C,E,]2 | %112
!ped! .[=B,,=B,]2 z [=B,,,B,,] .[B,,,B,,]2!ped-up! | .[=B,,=B,]2 .[C,C]2 .[D,D]2 | %114
!ped! .[E,E]2 z [E,,G,,] .[E,,G,,]2!ped-up! | .G,2 x4 | E,2 D,2 C,2 | G,2 F,2 E,2 | %118
!<(! [D,G,]2 C,2 D,2 | E,2 F,2 G,2 | ^F,2!<)!!mf! G,2 A,2 |!>(! G,2 =F,2 E,2!>)! | %122
!ped! G2 C2 D2!ped-up! | E2[K:treble] F2 G2 | ^F2 G2 A2 | G2 =F2 E2 | %126
[K:bass] .[E,E]2 .[C,C]2 .[F,F]2 | .[D,D]2 .[=B,,=B,]2 .[G,,G,]2 | .[G,,G,]2 .[C,C]2 .[A,,A,]2 | %129
 .[F,,F,]2 .[G,,G,]2 .[G,,G,]2 | .[C,,C,]2 .[C,C]2 .[F,F]2 | .[D,D]2 .[=B,,=B,]2 .[G,,G,]2 | %132
 .[G,,G,]2 .[E,,E,]2 .[A,,A,]2 | .[F,,F,]2 .[D,,D,]2 .[G,,G,]2 |!ped! .[C,,C,]2 z C!ped-up! .C2 | %135
!ped! .[G,=B,G]2 z [G,,G,]!ped-up! .[G,,G,]2 |!ped! .[C,,C,]2 z C!ped-up! .C2 | %137
!ped! .[G,=B,G]2 z [G,,G,]!ped-up! .[G,,G,]2 | [A,CF]2 [G,=B,E]2 [F,A,D]2 | %139
 [E,G,C]2 [D,F,=B,]2 [C,E,A,]2 | [G,,=B,,D,G,]2 [C,E,A,]2 [B,,D,G,]2 | [A,CF]2 [G,=B,E]2 [F,D]2 | %142
 .[C,E,C]2 z [E,G,C] .[E,G,C]2 | .[A,,C]2 z2 z2 | .[F,,A,]2 z [F,A,C] .[F,A,C]2 | .[D,A,D]2 z2 z2 | %146
 z6 | z6 | z6 | z6 :| .[D,,D,]2 z [F,A,D] .[F,A,D]2 | .[B,,B,]2 z2 z2 | %152
 .[G,,G,]2 z [G,B,D] .[G,B,D]2 | [_E,B,_E]2 z2 z2 | z6 | z6 | z6 | z6 |: %158
 .[_E,,_E,]2 z [G,B,_E] .[G,B,E]2 | .[C,C]2 z2 z2 | .[_A,,_A,]2 z [A,C_E] .[A,CE]2 | %161
 .[F,CF]2 z2 z2 | .[_D,_D]2 z [DF] .[DF]2 | .[B,,B,]2 z2 z2 | .[_G,,_G,]2 z [B,_D_G] .[B,DG]2 | %165
 [_E,,_E,]2 z2 z2 | .[_C,_C]2 z[K:treble] [_C_E_G] .[CEG]2 | .[_A,_E_A]2 z2 z2 | %168
[K:bass] .[=E,=E]2 z [=B,E^G] .[B,EG]2 | .[^C,^C]2 z2 z2 |!ped! .[A,,A,]2 z [A,A] .[A,A]2!ped-up! | %171
 .A,,2 z A, .A,2 | .[^A,,^A,]2 z [A,^A] .[A,A]2 | .^A,,2 z ^A, .A,2 | %174
!ped! .[=B,,=B,]2 z [B,=B] .[B,B]2 | .[=B,,,=B,,]2 z [B,,=B,] !fermata![B,,B,]2!ped-up! || %176
[K:G] .B,2 z B,, .B,,2 | .E,2 .[^D,F,]2 .[E,G,]2 | .[^D,F,]2 .[E,G,]2 .[F,A,]2 | %179
 .[E,G,]2 .[G,B,]2 .[G,B,]2 | .[G,B,]2 .[F,A,]2 .[E,G,]2 | .[F,A,]2 .[E,G,]2 .[^D,F,]2 | %182
 .B,2 z B,, .B,,2 | .E,2 .F,2 .G,2 | .F,2 .G,2 .A,2 | .[E,^G,]2 .[E,E]2 .[E,E]2 | %186
 .[CE]2 .[B,D]2 .[A,C]2 | .[B,D]2 .[A,C]2 .[^G,B,]2 | .E2 z E, .E,2 | .A,2 .[^G,B,]2 .[A,C]2 | %190
 .[^G,B,]2 .[A,C]2 .[B,D]2 | .[A,C]2 .[CE]2 .[CE]2 | .[CE]2 .[B,D]2 .[A,C]2 | %193
 .[B,D]2 .[A,C]2 .[^G,B,]2 ||[K:F]!f!!ped! .F,,2 z F,,,!ped-up! .F,,,2 | F2 x4 | .F2 .F2 .F2 | %197
!f!!ped! .F,,2 z F,,,!ped-up! .F,,,2 | .[A,F]2 .[G,B,]2 .[F,A,]2 | .[G,B,C]2 .[F,A,C]2 .[E,G,C]2 | %200
!f!!ped! .F,,2 z F,,,!ped-up! .F,,,2 |[K:treble] .[Ac]2 .[GB]2 .[FA]2 | .[Bd]2 .[Ac]2 .[GB]2 | %203
[K:bass]!f!!ped! .F,,2 z F,,,!ped-up! .F,,,2 |[K:treble] .[Fc]2 .[Ge]2 .[Af]2 | %205
 .[Ge]2 .[Af]2 .[Bg]2 | .[Ac]2 .[GB]2 .[FA]2 |[K:bass] .F,2 z F,, .F,,2 | %208
[K:treble] .[Ac]2 .[GB]2 .[Ac]2 | .C2 .C2 .C2 | .c2 z C .C2 | .C2 .C2 .C2 | .[FA]2 .[EG]2 .[DF]2 | %213
[K:bass] .D2 z D, .D,2 |[K:treble] .[FA]2 .[EG]2 .[FA]2 | .A,2 .A,2 .A,2 | %216
[K:bass] .A,2 z A,, .A,,2 | .[G,A,]2 .[F,A,]2 .[G,A,]2 | .[F,A,]2 .[E,G,]2 .[D,F,]2 | %219
[K:treble] .A2 z A, .A,2 |[K:bass] .[F,A,]2 .[E,A,]2 .[F,A,]2 | .[G,A,]2 .[F,A,]2 .[E,A,]2 | %222
 .A,2 z A,, .A,,2 | .[G,A,]2 .[F,A,]2 .[G,A,]2 | .[G,^C]2 .[F,D]2 .[E,E]2 | .A,2 .A,2 .A,2 | %226
 .A,2 .A,2 .A,2 | .A,2 z A,, .A,,2 | .[D,F,]2 .[E,G,]2 .[F,A,]2 | .[E,G,]2 .[F,A,]2 .[G,A,]2 | %230
 .[F,D]2[K:treble] [A,FA]2 .[A,FA]2 | .[A,FA]2 .[EG]2 .[DF]2 | .[A,EG]2 .[DF]2 .[^CE]2 | %233
 .[A,DF]2 z[K:bass] A,, .A,,2 | .[D,F,]2 .[E,G,]2 .F,2 | .[E,^C]2 .[F,D]2 .[G,E]2 | %236
 .[F,D]2 .[E,^C]2 .[F,D]2 | .[=B,,D,]2 .[C,_E,]2 .[D,F,]2 | .[_E,C]2 .[D,=B,]2 .[E,C]2 | %239
[K:treble] .G2 z G, .G,2 |[K:bass] .[C_E]2 .[=B,D]2 .[CE]2 | ._B,2 z B,, .B,,2 | %242
 .B,,2 z B,,, .B,,,2 | .B,2 z B,, .B,,2 |[K:treble] .B2 z B, .B,2 | .[DF]2 .[_EG]2 .[F_A]2 | %246
[K:bass] .B,2 z B,, .B,,2 |!ped! .[B,,F,]2 z!pp! [B,,,F,,] .[B,,,F,,]2 | .B,2 z B,, .B,,2 | %249
 [B,,F,_A,]6- | [B,,F,A,]6!ped-up! |!pp! .[B,_E]2 z B,, .B,,2 | .[B,_E]2 z B,, .B,,2 | %253
 .[B,_E]2 z B,, .B,,2 | .[B,_E]2 z B,, .B,,2 |!ped! .[B,,F,]2 z!pp! [B,,,F,,] .[B,,,F,,]2 | %256
 .B,2 z B,, .B,,2 | [B,,F,_A,]6- | [B,,F,A,]6!ped-up! |!ped! [A,,F,A,]2 z [A,,,F,,] .[A,,,F,,]2 | %260
"^cresc." A,2 z A,, .A,,2 | [A,,F,A,]6- | [A,,F,A,]6!ped-up! |!ped! .[A,,F,A,]2 z [F,A,] .[F,A,]2 | %264
 .[F,A,D]2 z [F,A,] .[F,A,]2!ped-up! |!ped! .[A,,F,A,]2 z [F,A,] .[F,A,]2 | %266
 .[F,A,D]2 z [F,A,] .[F,A,]2!ped-up! |!ped! .[D,,A,,D,]2 z [F,A,D] .[F,A,D]2 | %268
 .[D,,A,,D,]2 z [F,A,D] .[F,A,D]2 | .[D,,A,,D,]2 z [F,A,D] .[F,A,D]2 | %270
 .[D,,A,,D,]2 z [F,A,D] .[F,A,D]2 | [D,,F,,A,,]D,[D,,F,,A,,]D,[D,,F,,A,,]D,!ped-up! | %272
!ped! !arpeggio!.[D,,F,,A,,D,]2 z [F,A,D] .[F,A,D]2!ped-up! | %273
!ped! .[D,,A,,D,]2 z [F,A,D] .[F,A,D]2!ped-up! |!ped! .[D,,A,,D,]2 z [F,A,D] .[F,A,D]2!ped-up! | %275
!ped! .[D,,A,,D,]2 z [F,A,D] .[F,A,D]2!ped-up! |!ped! .[D,,A,,D,]2 z [F,A,D] .[F,A,D]2!ped-up! | %277
!ped! .[D,,A,,D,]2 z [F,A,D] .[F,A,D]2!ped-up! |!ped! .[D,,A,,D,]2 z [F,A,D] .[F,A,D]2!ped-up! | %279
!ped! .[D,,A,,D,]2 z [F,A,D] .[F,A,D]2!ped-up! |!ped! .[D,,A,,D,]2 z [F,A,D] .[F,A,D]2!ped-up! | %281
!ped! .[D,,A,,D,]2 z [F,A,D] .[F,A,D]2!ped-up! |!ped! .[D,,A,,D,]2 z [F,A,D] .[F,A,D]2!ped-up! | %283
 .[_E,_E]2 .[D,D]2 .[C,C]2 | .[B,,B,]2 z [D,D] .[D,D]2 | .[^F,,^F,]2 z [D,D] .[D,D]2 | %286
 .[G,,G,]2 z [D,D] .[D,D]2 | .[_E,_E]2 .[D,D]2 .[C,C]2 | .[B,,B,]2 .[A,,A,]2 .[G,,G,]2 | %289
 .[F,,F,]2 z !>![F,,,F,,] .[F,,,F,,]2 | .[F,,F,]2 z !>![F,,,F,,] .[F,,,F,,]2 | %291
 .[F,,F,]2 z !>![F,,,F,,] .[F,,,F,,]2 | .[F,,F,]2 z [C,C] .[B,,B,]2 | %293
 .[A,,A,]2 z [G,,G,] .[F,,F,]2 | .[_E,,_E,]2 z [D,,D,] .[C,,C,]2 | .[B,,,B,,]2 z2 z2 | %296
 .B,2 z[I:staff -1] F .F2 |!<(![I:staff +1] ._E,2 z[I:staff -1] [FG] .[FG]2 | %298
[I:staff +1] .C,2 z[I:staff -1] [_EGc] .[EGc]2 |[I:staff +1] .F,2 z[I:staff -1] [_EGc] .[EGc]2 | %300
[I:staff +1] .B,,2 z!<)!!mf![I:staff -1] [DFB]!>(! .[DFB]2 | %301
[I:staff +1] .F,2 z[I:staff -1] [_DFB] .[DFB]2 |[I:staff +1] .F,2 z[I:staff -1] [CFA] .[CFA]2!>)! | %303
!p!!ped![I:staff +1] [B,,B,]6- | [B,,B,]6!ped-up! |!ped! [A,,A,]6 | %306
 .A,2 z[I:staff -1] A .A2!ped-up! |[I:staff +1] .A,2 z[I:staff -1] [A=B] .[AB]2 | %308
[I:staff +1] .A,2 z[I:staff -1] [G=B] .[GB]2 | %309
!ped![I:staff +1] .A,2 z[I:staff -1] [G_B] .[GB]2!ped-up! | %310
!ped![I:staff +1] .A,2 z[I:staff -1] [^FA] .[FA]2!ped-up! | %311
!ped![I:staff +1] .A,2 z[I:staff -1] [=FA] .[FA]2!ped-up! | %312
!ped![I:staff +1] .A,2 z[I:staff -1] [EA] .[EA]2!ped-up! |!ped![I:staff +1] x6!ped-up! | %314
 x2 z z .A,2 | x2 z [A,B,] .[A,B,]2 | x2 z [G,B,] .[G,B,]2 | x2 z [G,A,] .[G,A,]2 | %318
 x2 z [^F,A,] .[F,A,]2 | x2 z [=F,^G,] .[F,G,]2 | x2 z [E,=G,] .[E,G,]2 | .A,2 z A,, .A,,2 | %322
!ped! .A,2 z A,, .A,,2 | .[A,=B,]2 z A,, .A,,2!ped-up! |!ped! .[G,=B,E]2 z G,, .G,,2!ped-up! | %325
!ped! .[G,A,E]2 z G,, .G,,2!ped-up! |!ped! .[^F,A,D]2 z ^F,, .F,,2!ped-up! | %327
!ped! .[=F,A,D]2 z F,, .F,,2!ped-up! |!ped! .[E,A,^C]2 z E,, .E,,2!ped-up! | %329
!ped! .[D,,D,]2 z [D,,D,] .[D,,D,]2!ped-up! |!ped! .[D,D]2 z [D,,D,] .[D,,D,]2!ped-up! | %331
!ped! .[D,D]2 z [D,,D,] .[D,,D,]2!ped-up! |!ped! .[D,D]2 z [D,,D,] .[D,,D,]2!ped-up! | %333
!ped! .[D,D]2 z [D,,D,] .[D,,D,]2!ped-up! |!ped! .[D,D]2 z [D,,D,] .[D,,D,]2!ped-up! | %335
!ped! .[D,D]2 z [D,,D,] .[D,,D,]2!ped-up! |!ped! .[D,D]2 z [D,,D,] .[D,,D,]2!ped-up! | %337
!ped! .[D,D]2 z [D,,D,] .[D,,D,]2!ped-up! |!ped! .[D,D]2 z [D,,D,] .[D,,D,]2!ped-up! | %339
!ped! .[D,D]2 z [D,,D,] .[D,,D,]2!ped-up! |!ped! .[D,D]2 z [D,,D,] .[D,,D,]2!ped-up! | %341
!ped! .[D,D]2 z [D,,D,] .[D,,D,]2!ped-up! |!ped! .[D,D]2 z [D,,D,] .[D,,D,]2!ped-up! | %343
!ped! .[D,D]2 z [D,,D,] .[D,,D,]2!ped-up! |!ped! .[D,D]2 z [D,,D,] .[D,,D,]2!ped-up! | %345
!ped! .[D,D]2 z [D,,D,] .[D,,D,]2!ped-up! | .[D,D]2 .[E,E]2 .[F,F]2 | %347
!ped! .[G,G]2 z !>![G,,B,,] .[G,,B,,]2!ped-up! | .[G,B,]2 .[E,G,]2 .[D,F,]2 | %349
!ped! .[C,E,C]2 z [C,,C,] .[C,,C,]2!ped-up! | .[C,C]2 .[D,D]2 .[E,E]2 | %351
!ped! .[F,F]2 z !>![F,,A,,] .[F,,A,,]2!ped-up! | .[F,A,]2 .[D,A,]2 .[C,A,]2 | D,2 E,2 ^F,2 | %354
 [B,,G,]6- | G,2 =F,2 _E,2 | [B,,B,]2 [_A,,_A,]2 [G,,G,]2 | [G,,G,]6 | [A,,A,]6 | %359
!ped! G2 F2 _E2!ped-up! | G2 F2 _E2 | [B,=E]2 F2 G2 | [EG]2 [DF]2 [^CE]2 | %363
 .[F,DF]2 .[D,D]2 .[G,G]2 | .[E,E]2 .[^C,^C]2 .[A,,A,]2 | .[D,D]2 .[B,,B,]2 .[G,,G,]2 | %366
 .[^G,,^G,]2 .[A,,A,]2 .[A,,A,]2 | .[D,,D,]2 .[D,D]2 .[G,G]2 | .[E,E]2 .[^C,^C]2 .[A,,A,]2 | %369
 .[A,,A,]2 .[F,,F,]2 .[B,,B,]2 | .[G,,G,]2 .[E,,E,]2 .[A,,A,]2 | %371
!ped! .[D,,D,]2 z[K:treble] [Dd]!ped-up! .[Dd]2 | %372
!ped! .[A,A]2 z[K:bass] [A,,A,]!ped-up! .[A,,A,]2 | %373
!ped! .[D,,D,]2 z[K:treble] [Dd]!ped-up! .[Dd]2 | %374
!ped! .[A,A]2 z[K:bass] [A,,A,]!ped-up! .[A,,A,]2 |!ped! G2 E2 ^C2 | G,2 E,2 ^C,2 | G,2 ^C2 E2 | %378
 G2 ^C2 E2!ped-up! | .[D,,D,]2 z [F,A,D] .[F,A,D]2 | .[A,,A,]2 z2 z2 | %381
 .[F,,F,]2 z [F,A,D] .[F,A,D]2 | .[D,,D,]2 z2 z2 | z6 | z6 | z6 | z6 ||1 %387
 .[D,,D,]2 z [F,A,D] .[F,A,D]2 | .[B,,B,]2 z2 z2 | .[F,,F,]2 z [F,B,D] .[F,B,D]2 | %390
 .[D,,D,]2 z2 z2 | .[B,,,B,,]2 z [F,B,D] .[F,B,D]2 | .[F,,F,]2 z2 z2 | %393
 .[D,,D,]2 z [D,F,B,] .[D,F,B,]2 | .[_E,,_E,]2 z [E,G,B,] .[E,G,B,]2 | .[_E,G,B,]2 z2 z2 | z6 | %397
 z6 | z6 :|2 .[D,,D,]2 z [F,A,D] .[F,A,D]2 | .[A,,A,]2 z2 z2 || .[F,,F,]2 z [F,A,D] .[F,A,D]2 | %402
 .[D,,D,]2 z2 z2 | .[B,,,B,,]2 z [F,B,D] .[F,B,D]2 | .[G,,G,]2 z2 z2 | %405
 .[B,,,B,,]2 z [B,,D,G,] .[B,,D,G,]2 | %406
!ped! .[A,,^C,E,A,]2 z[K:treble] [A,^CEA] !fermata![A,CEA]2!ped-up! | %407
[K:bass] .[^C,E,]2 .[D,F,]2 .[E,G,]2 | .[F,A,]2 .[E,G,]2 .[D,F,]2 | .[D,D]2 z [B,,D,] .[A,,D,]2 | %410
 .[G,,G,]2 .[A,,A,]2 .[B,,B,]2 | .[^C,E,]2 .[D,F,]2 .[E,G,]2 | .[F,A,]2 .[E,G,]2 .[D,F,]2 | %413
 .[D,D]2 z [B,,D,] .[A,,D,]2 | .[G,,G,]2 .[A,,A,]2 .[B,,B,]2 | .[A,,A,]2 z A,, .A,,2 | %416
!ped! .[D,,F,,]2 z .[F,,,A,,,]!ped-up! .[F,,,A,,,]2 | .[A,,A,]2 z A,, .A,,2 | %418
!ped! .[D,,F,,]2 z .[F,,,A,,,]!ped-up! .[F,,,A,,,]2 | .[A,,A,]2 z A,, .A,,2 | %420
!ped! .[D,,F,,]2 z .[F,,,A,,,]!ped-up! .[F,,,A,,,]2 | .[A,,A,]2 z A,, .A,,2 | %422
!ped! .[D,,F,,]2 z .[F,,,A,,,]!ped-up! .[F,,,A,,,]2 ||[M:4/4] A,2 [A,,A,]2 !>!D2 [D,D]2 | %424
 !>!A,2 [A,,A,]2 !>![A,A]2 [A,,A,]2 | !^![D,,D,]2!>(! z2 .D2 .^C2!>)! | .D2 .=B,2 .A,2 .G,2 |: %427
[K:D] .F,2 .E,2 .D,2 .=C,2 | .B,,2 .^C,2 .D,2 .[F,D]2 | .A,2 .C2 .D2 .C2 | .D2 .B,2 .A,2 .G,2 | %431
 .F,2 .E,2 .D,2 .=C,2 | x4 D2 x2 |1 .A,2 z2 .D2 .C2 | .D2 .B,2 .A,2 .G,2 :|2 .A,2 z2 |: %436
!p! D,2 E,2 || F,2 G,2 A,2 B,2 | B,2 A,2 A,4- | A,4 ^G,4 | A,4 x4 | x8 | F,,4 E,,2 G,,2 | %443
 .A,,2 z2 .[A,,,A,,]2 z2 | D,4- D,2 E,2 | F,2 G,2 A,2 B,2 | B,2 A,2 B,2 C2 | B,,8 | %448
 D2 C2 [DF]2 [EG]2 | [FA]2 [EG]2 D2 G2 | A2 D2 G4 | .[A,F]2 z2 .[A,E]2 z2 | !^!D8- | D4 E4 | %454
[K:treble] F6 GA | .G2 .G2 .F2 .F2 | E4 D4- | D4 E4 | F6 GA | .G2 .G2 .F2 .F2 | %460
 .E2 z2 z2[K:bass] .C2 | .D2 .B,2 .A,2 .G,2 | .F,2 .[E,E]2 .[D,D]2 .[=C,=C]2 | %463
 .[B,,B,]2 .[^C,^C]2 D4- | D4 D4- | D4 E4 | F6 GA | .G2 .G2 .F2 z2 | A,8- |!p! A,4 B,4 | C6 DE | %471
 D2 D2 C2 C2 | B,4 A,4- | A,4 B,4 | C4 [A,C]4- | [A,C]4 [A,B,D]4 | [A,CE]4 [A,CE]4- | %477
 [A,CE]4 [A,DF]4 | [A,EG]4 [A,CE]4- | [A,CE]4 [A,DF]4 | [A,EG]4 [A,EG]4- | [A,EG]4 [A,EG]4- | %482
 [A,EG]4 [A,EG]4- | [A,EG]4 [_B,EG]4- | [B,EG]4[K:treble] [=CEG]4- | [CEG]4"^subito" [=CEG]4- | %486
 [CEG]4 [=C-EG]4 | [C=FA]4 [=CEG]4- | G2 G4 ^F2 |[K:bass] [D,F,D]2 z2 .[DF]2 .[CE]2 | %490
 .[DF]2 .[B,D]2 .[A,C]2 .[G,B,]2 | .[F,A,]2 .[E,G,]2 .[D,F,]2 .[=C,D,]2 | %492
 .[B,,D,]2 .[^C,E,]2 .[D,F,]2 .[F,A,]2 | .[A,C]2 .[CE]2 .[DF]2 .[CE]2 | %494
 .[DF]2 .[B,D]2 .[A,C]2 .[G,B,]2 | .[F,A,]2 .[E,G,]2 .[D,F,]2 .[=C,D,]2 | %496
 .[B,,D,]2 .[^C,E,]2 .[D,F,]2 .[F,A,]2 | .[A,C]2 .[CE]2 .[D,D]2 .[C,C]2 | %498
 .[D,D]2 .[B,,B,]2 .[A,,A,]2 .[G,,G,]2 | .[F,,F,]2 .[E,,E,]2 .[D,,D,]2 .[=C,,=C,]2 | %500
 .[B,,,B,,]2 .[^C,,^C,]2 .[D,,D,]2 .[F,,F,]2 | .[A,,A,]2 .[C,C]2 .[D,D]2 .[C,C]2 | %502
 .[D,D]2 .[B,,B,]2 .[A,,A,]2 .[G,,G,]2 | .[F,,F,]2 .[E,,E,]2 .[D,,D,]2 .[=C,,=C,]2 | %504
 .[B,,,B,,]2 .[G,,,G,,]2 .[A,,,A,,]2 .[A,,A,]2 |1 [D,,D,]2 z2 :|2 [D,,D,]2 z2!mp! [D,D]4- || %507
 [D,D]4 [D,E,D]4 | [D,D]8- | [D,D]4 [D,D]4- | [D,D]4"_cresc." [D,D]4- | [D,D]4 [D,E,D]4 | %512
 [D,F,D]4 [D,F,D]4- | [D,F,D]4 [D,G,D]4 | [D,A,D]4!ped! !arpeggio![D,A,DF]4- | %515
 [D,A,DF]4!ped-up! [G,EG]4 | [F,D]4!ped! !arpeggio![D,A,DF]4- | [D,A,DF]4!ped-up! [G,EG]4 | %518
!f!!ped!{/D,,D,} [F,A,D]4 [D,F,A,D]4!ped-up! |!ped!{/D,,D,} [G,A,CE]4 [D,G,A,CE]4!ped-up! | %520
!ped!{/D,,D,} [F,A,D]4 [D,F,A,D]4!ped-up! |!ped!{/D,,D,} [G,A,CE]4 [D,G,A,CE]4!ped-up! | %522
!ped!{/D,,D,} .[F,A,D]2!ped-up! z2!p! .D2"_cresc." .C2 | .D2 .B,2 .A,2 .G,2 | .F,2 .D,2 .F2 .E2 | %525
 .F2 .D2 .C2 .B,2 | .A,2 .D2 .A2 .^G2 | .A2 .F2 .E2 .D2 | .A,2 .D2 .A2 .^G2 | .A2 .F2 .E2!f! .D2 | %530
!ped! .A,2 .D2 .E2 .D2!ped-up! |!ped!{/D,,D,} .A,2 .E2 .F2 .E2!ped-up! | %532
!ped!{/D,,D,} .A,2 .D2 .E2 .D2!ped-up! |!ped!{/D,,D,} .A,2 .E2 .F2 .E2!ped-up! | %534
!ped!{/D,,D,} .A,2 .D2 .E2 .D2!ped-up! |!ped!{/D,,D,} .A,2 .E2 .F2 .E2!ped-up! | %536
!ped!{/D,,D,} .A,2 .D2 .E2 .D2!ped-up! |!ped!{/D,,D,} .A,2 .E2 .F2 .E2!ped-up! | .A,2 .D2 .D2 .C2 | %539
 D2 B,2 A,2 G,2 | D2 z2[K:treble] d2 c2 | d2 B2 A2 G2 | [FA]4 [GB]4 | [GB]4 z4 |[K:bass] [F,B,D]8 | %545
 [D,_B,D]6- !fermata![D,B,D]2 ||[K:F][M:3/4] .[^C,E,]2 .[D,F,]2 .[E,G,]2 | %547
 .[F,A,]2 .[E,G,]2 .[D,F,]2 | .[D,D]2 z [B,,D,] .[A,,D,]2 | .[G,,G,]2 .[A,,A,]2 .[B,,B,]2 | %550
 .[^C,E,]2 .[D,F,]2 .[E,G,]2 | .[F,A,]2 .[E,G,]2 .[D,F,]2 | .[D,D]2 z [B,,D,] .[A,,D,]2 | %553
 .[G,,G,]2 .[A,,A,]2 .[B,,B,]2 | .[A,,A,]2 z A,, .A,,2 | %555
!ped! .[D,,F,,]2 z .[F,,,A,,,]!ped-up! .[F,,,A,,,]2 | .[A,,A,]2 z A,, .A,,2 | %557
!ped! .[D,,F,,]2 z .[F,,,A,,,]!ped-up! .[F,,,A,,,]2 | .[A,,A,]2 z A,, .A,,2 | %559
!ped! .[D,,F,,]2 z .[F,,,A,,,]!ped-up! .[F,,,A,,,]2 | .[A,,A,]2 z A,, .A,,2 | %561
!ped! .[D,,F,,]2 z .[F,,,A,,,]!ped-up! .[F,,,A,,,]2 ||[M:2/2] !>!A,2 [A,,A,]2 !>!D,2 [D,,D,]2 | %563
 !>!A,,2 [A,,,A,,]2 !>![A,,A,]2 [A,,A,]2 ||[K:D] !^![D,,D,]2 z2!p! .D2 .C2 | .D2 .B,2 .A,2 .G,2 | %566
 .F,2 .E,2 .D,2 .=C,2 | .B,,2 .^C,2 .D,2 .[F,D]2 | .[A,C]2 .[CG]2 .[DF]2 .C2 | .D2 .B,2 .A,2 .G,2 | %570
 .F,2 .E,2 .D,2 .D2 | z8 |!ped! !>![A,A]2 [A,,A,]2!ped-up!!ped! !>![D,D]2 [D,,D,]2!ped-up! | %573
!ped! !>![A,,A,]2 [A,,,A,,]2!ped-up!!ped! !>![A,A]2 [A,,A,]2!ped-up! | [D,,D,]2 z2 !fermata!z4 |] %575
V:3
 x6 | x6 | x6 | x6 | x6 | x3 [D,,,D,,] .[D,,,D,,]2 | x6 | x6 |: x6 | x6 | x6 | x6 |[K:treble] x6 | %13
 x6 | x6 | x6 | x6 | x6 | x6 | x6 | x6 | x6 | x6 | x6 |[K:bass] x6 | .D,2 .E,2 .F,2 | %26
 .E,2 .F,2 .G,2 | .F,2 .E,2 .D,2 | x6 | x6 | x6 | x6 | x6 | x6 | .A,,2 .A,,2 .A,,2 | %35
 .A,,2 .A,,2 .A,,2 | .A,,2 .A,,2 .A,,2 | .A,,2 .A,,2 .A,,2 | .A,,2 .A,,2 .A,,2 | %39
 .A,,2 .A,,2 .A,,2 | .A,,2 .A,,2 .A,,2 | .A,,2 .A,,2 .A,,2 | .A,,2 x4 | .A,,2 x4 | .A,,2 x4 | %45
 .A,,2 x4 | .A,,2 x4 | .A,,2 x4 | .A,,2 x4 | .A,,2 x4 | .A,,2 x4 | .A,,2 x4 | .A,,2 x4 | .A,,2 x4 | %54
 .A,,2 x4 | x6 | x6 | x6 | x6 | x6 | x6 | x6 | x6 | x6 | x6 | x6 | x6 | x6 | x6 | x6 | x6 | x6 | %72
 x6 | x6 | x6 | x6 | x3[K:treble] x3 | x6 | x6 | D6 | =B,6 | C6 | G,6 | G,6 | x3[K:bass] x3 | %85
 C,2 x4 | F,,2 x4 | D,,2 x4 | G,,2 x4 | C,2 x4 | G,,2 x4 | G,,2 x4 | x6 | x6 | x6 | x6 | x6 | x6 | %98
 x6 | x6 | x6 | x6 | x6 | x6 | x6 | x6 | x6 | x6 | x6 | x6 | x6 | x6 | x6 | x6 | x6 | %115
 E,2 .C,2 .=B,,2 | [_B,,-G,]6 | [B,,G,]6 | B,,6- | B,,2 A,,2 G,,2 | A,,2 G,,2 ^F,,2 | G,,6 | %122
{/B,,G,} B,6- | B,2[K:treble] A,2 G,2 | A,2 G,2 ^F,2 | G,2 =F,2 E,2 |[K:bass] x6 | x6 | x6 | x6 | %130
 x6 | x6 | x6 | x6 | x6 | x6 | x6 | x6 | x6 | x6 | x6 | x4 A,G, | x6 | x6 | x6 | x6 | x6 | x6 | %148
 x6 | x6 :| x6 | x6 | x6 | x6 | x6 | x6 | x6 | x6 |: x6 | x6 | x6 | x6 | x6 | x6 | x6 | x6 | %166
 x3[K:treble] x3 | x6 |[K:bass] x6 | x6 | x6 | x6 | x6 | x6 | x6 | x6 ||[K:G] x6 | .E,,2 x4 | %178
 [B,,,B,,]2 x4 | x6 | E,2 x4 | B,,2 x4 | x6 | E,,2 x4 | B,,2 x4 | x6 | E,2 x4 | E,2 x4 | x6 | %189
 A,,2 x4 | E,2 x4 | x6 | A,2 x4 | E,2 x4 ||[K:F] x6 | .[A,C]2 .[G,B,]2 .[F,A,]2 | %196
 [B,D]2 [A,C]2 [G,B,]2 | x6 | x6 | x6 | x6 |[K:treble] F2 x4 | F2 x4 |[K:bass] x6 | %204
[K:treble] F2 x4 | F2 x4 | F2 x4 |[K:bass] x6 |[K:treble] F2 x4 | x6 | x6 | x6 | D2 x4 | %213
[K:bass] x6 |[K:treble] D2 x4 | x6 |[K:bass] x6 | x6 | x6 |[K:treble] x6 |[K:bass] x6 | x6 | x6 | %223
 x6 | x6 | D,2 x4 | A,,2 x4 | x6 | x6 | x6 | x2[K:treble] x4 | x6 | x6 | x3[K:bass] x3 | x6 | x6 | %236
 x6 | x6 | x6 |[K:treble] x6 |[K:bass] x6 | x6 | x6 | x6 |[K:treble] x6 | x6 |[K:bass] x6 | x6 | %248
 x6 | x2 x D, .D,2 | x2 x F, .F,2 | x6 | x6 | x6 | x6 | x6 | x6 | x2 x D, .D,2 | x2 x F, .F,2 | %259
 x6 | x6 | x2 x D, .D,2 | x2 x D, .D,2 | x2 x [F,,A,,D,] .[F,,A,,D,]2 | %264
 x2 x [F,,A,,D,] .[F,,A,,D,]2 | x2 x [F,,A,,D,] .[F,,A,,D,]2 | x2 x [F,,A,,D,] .[F,,A,,D,]2 | x6 | %268
 x6 | x6 | x6 | x6 | x6 | x6 | x6 | x6 | x6 | x6 | x6 | x6 | x6 | x6 | x6 | x6 | x6 | x6 | x6 | %287
 x6 | x6 | x6 | x6 | x6 | x6 | x6 | x6 | x6 | x6 | x6 | x6 | x6 | x6 | x6 | x6 | x6 | x6 | x6 | %306
 x6 | x6 | x6 | x6 | x6 | x6 | x6 | !>!A,,6- | A,,6- | A,,6 | .A,,2 x4 | .A,,2 x4 | .A,,2 x4 | %319
 .A,,2 x4 | .A,,2 x4 | x6 | x6 | x6 | x6 | x6 | x6 | x6 | x6 | x6 | x6 | x6 | x6 | x6 | x6 | x6 | %336
 x6 | x6 | x6 | x6 | x6 | x6 | x6 | x6 | x6 | x6 | x6 | x6 | x6 | x6 | x6 | x6 | x6 | A,,6 | x6 | %355
 B,,6 | x6 | x6 | x6 |{/B,,G,} B,6 | B,2 _A,2 G,2 | G,2 =A,2 B,2 | B,2 A,2 G,2 | x6 | x6 | x6 | %366
 x6 | x6 | x6 | x6 | x6 | x3[K:treble] x3 | x3[K:bass] x3 | x3[K:treble] x3 | x3[K:bass] x3 | x6 | %376
 !arpeggio!A,,2 x4 | [A,,E,]2 x4 | A,2 x4 | x6 | x6 | x6 | x6 | x6 | x6 | x6 | x6 ||1 x6 | x6 | %389
 x6 | x6 | x6 | x6 | x6 | x6 | x6 | x6 | x6 | x6 :|2 x6 | x6 || x6 | x6 | x6 | x6 | x6 | %406
 x3[K:treble] x3 |[K:bass] x6 | x6 | x6 | x6 | x6 | x6 | x6 | x6 | x6 | x6 | x6 | x6 | x6 | x6 | %421
 x6 | x6 ||[M:4/4] x8 | x8 | x8 | x8 |:[K:D] x8 | x8 | x8 | x8 | x8 | .B,,2 .^C,2 .D,2 .^G,2 |1 %433
 x8 | x8 :|2 x4 |: D,,4- || D,,8 | [C,,C,]8 | [B,,,B,,]8 | [A,,,A,,]8- | [A,,,A,,]4 [G,,,G,,]4 | %442
 x8 | x8 | .D,,2 x2 x4 | D,8 | C,8 | x8 | A,,4 A,4- | A,6 G,2 | F,4 E,2 G,2 | x8 | D,2 z2 z4 | x8 | %454
[K:treble] D8- | D8 | D8- | D8 | D4 z4 | x8 | x6[K:bass] x2 | x8 | x8 | x4 [D,D]2 .F,2 | %464
 .A,2 .G,2 .[F,F]2 z2 | D8 | D4 z4 | x8 | A,8- | A,8 | A,8- | A,8- | A,8- | A,8- | A,4 x4 | x8 | %476
 x8 | x8 | x8 | x8 | x8 | x8 | x8 | x8 | x4[K:treble] x4 | x8 | x8 | x8 | [CE]4 [^CE]2 D2 | %489
[K:bass] x8 | x8 | x8 | x8 | x8 | x8 | x8 | x8 | x8 | x8 | x8 | x8 | x8 | x8 | x8 | x8 |1 x4 :|2 %506
 x8 || x8 | F,6 G,A, | .G,2 .G,2 .F,2 .F,2 | E,4 x4 | x8 | x8 | x8 | x8 | x8 | x8 | x8 | x8 | x8 | %520
 x8 | x8 | x4 D,4 | x8 | z4 D,4 | x8 | z4 D,4 | z4 D,4 | D,4 D,4 | z4 D,4 | %530
 D,4 !arpeggio![D,F,A,]4 | A,4 [G,A,C]4 | A,4 [F,A,]4 | A,4 [G,A,C]4 | A,4 [F,A,]4 | A,4 [G,A,C]4 | %536
 A,4 [F,A,]4 | A,4 [G,A,C]4 | D,4 D,4 | D,8 | D,4[K:treble] x4 | x8 | z2 D2 D2 C2 | %543
 D2 B,2 A,2 G,2 |[K:bass] x8 | x8 ||[K:F][M:3/4] x6 | x6 | x6 | x6 | x6 | x6 | x6 | x6 | x6 | x6 | %556
 x6 | x6 | x6 | x6 | x6 | x6 ||[M:2/2] x8 | x8 ||[K:D] x8 | x8 | x8 | x8 | x8 | x8 | x8 | x8 | x8 | %573
 x8 | x8 |] %575
V:4
 x6 | x6 | x6 | x6 | x6 | x6 | x6 | x6 |: x6 | x6 | x6 | x6 | x6 | x6 | x6 | x6 | x6 | x6 | x6 | %19
 x6 | x6 | x6 | x6 | x6 | x6 | x6 | x6 | x6 | x6 | x6 | x6 | x6 | x6 | x6 | x6 | x6 | x6 | x6 | %38
 x6 | x6 | x6 | x6 | x6 | x6 | x6 | x6 | x6 | x6 | x6 | x6 | .A2 x4 | .A2 x4 | .A2 x4 | .A2 x4 | %54
 .A2 x4 | .[^ce]2 .[df]2 .[cg]2 | x6 | x6 | x6 | x6 | x6 | x6 | x6 | x6 | x6 | x6 | x6 | x6 | x6 | %69
 x6 | x6 | x6 | x6 | x6 | x6 | x6 | x6 | g2 z[I:staff +1] G .G2 | %78
[I:staff -1] [ga]2 z[I:staff +1] [FA] .[FA]2 |[I:staff -1] [fad']2 x4 | [f_ad']2 z d .d2 | %81
 [egc']2 z!f! c!>(! .c2 | [_egc']2 z c .c2 | [dg=b]2 z =B .B2!>)! | G2 z"_cresc." x x2 | %85
 G2 z x x2 | [GA]2 z x x2 | [FAd]2 z x x2 | [F_Ad]2 z x x2 | [EGc]2 z x x2 | [_EGc]2 z x x2 | %91
 [DG=B]2 z x x2 | x6 | x6 | x6 | x6 | x6 | x6 | x6 | x6 | x2!8va(! x4 | x6 | x6 | x6 | x6 | x6 | %106
 x6 | x6 | x2!8va)! x4 |!8va(! x6 | x2!8va)! x4 | x6 | x6 | x6 | x6 | x6 | C2 F2 E2- | E2 F2 G2 | %118
 F2 E2 F2 | G2 C2 c2 | x6 | [Ec]2 D2 C2 | x6 | x6 | x6 | x6 | x6 | x6 | x6 | x6 | x6 | x6 | x6 | %133
 x6 | x6 | x6 | x6 | x6 | x6 | x6 |!8va(! x6 | x6 | x2!8va)! x4 | x6 | x6 | x6 | x6 | x6 | x6 | %149
 x6 :| x6 | x6 | x6 | x6 | x6 | x6 | x6 | x6 |: x6 | x6 | x6 | x6 | x6 | x6 | x6 | x6 | x6 | x6 | %168
 x6 | x6 | x6 | x6 | x6 | x6 | x6 |!8va(! x2!8va)! x4 ||[K:G] x6 | x6 | x6 | x6 | x6 | x6 | x6 | %183
 x6 | x6 | x6 | x6 | x6 | x6 | x6 | x6 | x6 | x6 | x6 ||[K:F] x6 | x6 | x6 | x6 | x6 | x6 | x6 | %201
 x6 | x6 | x6 | x6 | x6 | x6 | x6 | x6 | x6 | x6 | x6 | x6 |!8va(! x6 | x6!8va)! | x6 | x6 | x6 | %218
 x6 | x6 | x6 | x6 | x6 | x6 | x6 | x6 | x6 | x6 | x6 | x6 | x6 | x6 | x6 | x6 | x6 | x6 | x6 | %237
 x6 | x6 | x6 | x6 | x6 | x6 | x6 | x6 | x6 | x6 | x6 | x6 | .D2 z x x2 | .F2 z x x2 | x6 | x6 | %253
 x6 | x6 | x6 | x6 | .D2 z x x2 | .F2 z x x2 | x6 | x6 | D2 z x x2 | F2 z x x2 | x6 | x6 | x6 | %266
 x6 | x6 | x6 | x6 | x6 | x6 |!8va(! x6 | x6 | x6 | x6 | x6 | x6 | x6 | x6 | x6 | x6 | x6!8va)! | %283
 x6 | x6 | x6 | x6 | x6 | x6 | x6 | x6 | x6 | x6 | x6 | x6 | x6 | x6 | x6 | x6 | x6 | x6 | x6 | %302
 x6 | x6 | x6 | x6 | x6 | x6 | x2 x e .e2 | x2 x e .e2 | x2!>(! x d .d2 | x2 x d .d2 | %312
 x2 x ^c .c2!>)! | x6 | x6 | x6 | x6 | x6 | x6 | x6 | x6 | x6 | x6 | x6 | x6 | x6 | x6 | x6 | x6 | %329
 x6 | x6 | x6 | x6 | x6 | x6 | x6 | x6 |!8va(! x6 | x6 | x6 | x6 | x6 | x6 | x6 | x6 | %345
 x2!8va)! x4 |!8va(! x6 | x2!8va)! x4 | x6 | x6 | x6 | x6 | x6 | D2 E2 ^F2 | G6- | G2 F2 _E2 | %356
 [G_e]6 | [B=e]2!mf! [Af]2 [Bg]2- | [Be]2 [Ad]2 [G^c]2 |!8va(! x6 | x6 | x6 | x6 | x6 | x6!8va)! | %365
 x6 | x6 | x2!8va(! x4 | x6!8va)! | x6 | x6 | x6 | x6 | x6 | x6 | x6 | x6 | x6 | x6 | x6 | x6 | %381
 x6 | x6 | x6 | x6 | x6 | x6 ||1 x6 | x6 | x6 | x6 | x6 | x6 | x6 | x6 | x6 | x6 | x6 | x6 :|2 x6 | %400
 x6 || x6 | x6 | x6 | x6 | x6 | x6 | x6 | x6 | x6 | x6 | x6 | x6 | x6 | x6 | x6 | x6 | x6 | x6 | %419
 x6 | x6 | x6 | x6 ||[M:4/4] x8 | x8 | x8 | d8 |:[K:D] x8 | x8 | .B2 .G2 .F2 d2- | d8 | x8 | x8 |1 %433
 .c2 x2 d4- | d8 :|2 .c2 x2 |: x4 || x8 | x4 B,2 C2 | D2 C2 D2 E2 | D2 C2 x4 | x8 | x8 | x8 | x8 | %445
 x8 | x8 | x8 | x8 | x8 | x8 | x8 | x8 | x8 | x8 | x8 | x4 .f2 x2 | x8 | x8 | x8 | x4 D4- | %461
 D4 [DE]4 | D4 x4 | x8 | E4 x4 | x8 | x8 | x8 | x8 | x8 | x8 | x8 | x8 | x8 | x8 | x8 | x8 | x8 | %478
 x8 | x8 | x8 | x8 | x8 | x8 | x8 | x8 | x8 | x8 | x8 | x8 | x8 | x8 | x8 | x8 | x8 | x8 | x8 | %497
 x4 F2 E2 | F2 C2 x4 | x8 | x8 | c2 A2 F2 E2 | F2 D2 x4 | x8 | x8 |1 x4 :|2 x8 || x8 | x8 | x8 | %510
 x8 | x8 | x8 | x8 | x8 | x8 | x8 | x8 | x8 | x8 | x8 | x8 | x8 | x8 | x8 | x8 | x4!8va(! x4 | x8 | %528
 x8 | x8 | x8 | x8 | x8 | x8 | x8 | x8 | x8 | x8 | x4!8va)! x4 | x8 | z2 d2 x4 | x8 | z2 d2 x4 | %543
 x8 | x8 | x8 ||[K:F][M:3/4] x6 | x6 | x6 | x6 | x6 | x6 | x6 | x6 | x6 | x6 | x6 | x6 | x6 | x6 | %560
 x6 | x6 ||[M:2/2] x8 | x8 ||[K:D] x8 | x8 | x8 | x8 | x8 | x8 | x8 | x8 | x8 | x8 | x8 |] %575
V:5
 x6 | x6 | x6 | x6 | x6 | x6 | x6 | x6 |: x6 | x6 | x6 | x6 |[K:treble] x6 | x6 | x6 | x6 | x6 | %17
 x6 | x6 | x6 | x6 | x6 | x6 | x6 |[K:bass] x6 | x6 | x6 | x6 | x6 | x6 | x6 | x6 | x6 | x6 | x6 | %35
 x6 | x6 | x6 | x6 | x6 | x6 | x6 | x6 | x6 | x6 | x6 | x6 | x6 | x6 | x6 | x6 | x6 | x6 | x6 | %54
 x6 | x6 | x6 | x6 | x6 | x6 | x6 | x6 | x6 | x6 | x6 | x6 | x6 | x6 | x6 | x6 | x6 | x6 | x6 | %73
 x6 | x6 | x6 | x3[K:treble] x3 | x6 | x6 | x6 | x6 | x6 | x6 | x6 | x3[K:bass] x3 | x6 | x6 | x6 | %88
 x6 | x6 | x6 | x6 | x6 | x6 | x6 | x6 | x6 | x6 | x6 | x6 | x6 | x6 | x6 | x6 | x6 | x6 | x6 | %107
 x6 | x6 | x6 | x6 | x6 | x6 | x6 | x6 | x6 | x6 | x6 | x6 | x6 | x6 | x6 | x6 | x2[K:treble] x4 | %124
 x6 | x6 |[K:bass] x6 | x6 | x6 | x6 | x6 | x6 | x6 | x6 | x6 | x6 | x6 | x6 | x6 | x6 | x6 | x6 | %142
 x6 | x6 | x6 | x6 | x6 | x6 | x6 | x6 :| x6 | x6 | x6 | x6 | x6 | x6 | x6 | x6 |: x6 | x6 | x6 | %161
 x6 | x6 | x6 | x6 | x6 | x3[K:treble] x3 | x6 |[K:bass] x6 | x6 | x6 | x6 | x6 | x6 | x6 | x6 || %176
[K:G] x6 | x6 | x6 | x6 | x6 | x6 | x6 | x6 | x6 | x6 | x6 | x6 | x6 | x6 | x6 | x6 | x6 | x6 || %194
[K:F] x6 | x6 | x6 | x6 | x6 | x6 | x6 |[K:treble] x6 | x6 |[K:bass] x6 |[K:treble] x6 | x6 | x6 | %207
[K:bass] x6 |[K:treble] x6 | x6 | x6 | x6 | x6 |[K:bass] x6 |[K:treble] x6 | x6 |[K:bass] x6 | x6 | %218
 x6 |[K:treble] x6 |[K:bass] x6 | x6 | x6 | x6 | x6 | x6 | x6 | x6 | x6 | x6 | x2[K:treble] x4 | %231
 x6 | x6 | x3[K:bass] x3 | x6 | x6 | x6 | x6 | x6 |[K:treble] x6 |[K:bass] x6 | x6 | x6 | x6 | %244
[K:treble] x6 | x6 |[K:bass] x6 | x6 | x6 | x6 | x6 | x6 | x6 | x6 | x6 | x6 | x6 | x6 | x6 | x6 | %260
 x6 | x6 | x6 | x6 | x6 | x6 | x6 | x6 | x6 | x6 | x6 | x6 | x6 | x6 | x6 | x6 | x6 | x6 | x6 | %279
 x6 | x6 | x6 | x6 | x6 | x6 | x6 | x6 | x6 | x6 | x6 | x6 | x6 | x6 | x6 | x6 | x6 | x6 | x6 | %298
 x6 | x6 | x6 | x6 | x6 | x6 | x6 | x6 | x6 | x6 | x6 | x6 | x6 | x6 | x6 | x6 | x6 | x6 | x6 | %317
 x6 | x6 | x6 | x6 | x6 | x6 | x6 | x6 | x6 | x6 | x6 | x6 | x6 | x6 | x6 | x6 | x6 | x6 | x6 | %336
 x6 | x6 | x6 | x6 | x6 | x6 | x6 | x6 | x6 | x6 | x6 | x6 | x6 | x6 | x6 | x6 | x6 | x6 | x6 | %355
 x6 | x6 | x6 | x6 | x6 | x6 | x6 | x6 | x6 | x6 | x6 | x6 | x6 | x6 | x6 | x6 | x3[K:treble] x3 | %372
 x3[K:bass] x3 | x3[K:treble] x3 | x3[K:bass] x3 | x6 | x6 | x6 | x6 | x6 | x6 | x6 | x6 | x6 | %384
 x6 | x6 | x6 ||1 x6 | x6 | x6 | x6 | x6 | x6 | x6 | x6 | x6 | x6 | x6 | x6 :|2 x6 | x6 || x6 | %402
 x6 | x6 | x6 | x6 | x3[K:treble] x3 |[K:bass] x6 | x6 | x6 | x6 | x6 | x6 | x6 | x6 | x6 | x6 | %417
 x6 | x6 | x6 | x6 | x6 | x6 ||[M:4/4] x8 | x8 | x8 | x8 |:[K:D] x8 | x8 | x8 | x8 | x8 | x8 |1 %433
 x8 | x8 :|2 x4 |: x4 || z4 D,4 | x8 | x8 | x8 | x8 | x8 | x8 | x8 | x8 | x8 | x8 | x8 | x8 | x8 | %451
 x8 | D8- | D8 |[K:treble] x8 | x8 | x8 | x8 | x8 | x8 | x6[K:bass] x2 | x8 | x8 | x8 | x8 | x8 | %466
 x8 | x8 | E2 x2 x4 | x8 | x8 | x8 | x8 | x8 | x8 | x8 | x8 | x8 | x8 | x8 | x8 | x8 | x8 | x8 | %484
 x4[K:treble] x4 | x8 | x8 | x8 | x8 |[K:bass] x8 | x8 | x8 | x8 | x8 | x8 | x8 | x8 | x8 | x8 | %499
 x8 | x8 | x8 | x8 | x8 | x8 |1 x4 :|2 x8 || x8 | x8 | x8 | x8 | x8 | x8 | x8 | x8 | x8 | x8 | x8 | %518
 x8 | x8 | x8 | x8 | x8 | x8 | x8 | x8 | x8 | x8 | x8 | x8 | x8 | x8 | x8 | x8 | x8 | x8 | x8 | %537
 x8 | x8 | x8 | x4[K:treble] x4 | x8 | x8 | x8 |[K:bass] x8 | x8 ||[K:F][M:3/4] x6 | x6 | x6 | x6 | %550
 x6 | x6 | x6 | x6 | x6 | x6 | x6 | x6 | x6 | x6 | x6 | x6 ||[M:2/2] x8 | x8 ||[K:D] x8 | x8 | x8 | %567
 x8 | x8 | x8 | x8 | x8 | x8 | x8 | x8 |] %575

